icons/4_Outdated/Azure v1.svg

<svg width="1024" height="1024" viewBox="0 0 1024 1024" fill="none" xmlns="http://www.w3.org/2000/svg">
<g clip-path="url(#clip0_3_476)">
<path d="M512 1024C794.77 1024 1024 794.77 1024 512C1024 229.23 794.77 0 512 0C229.23 0 0 229.23 0 512C0 794.77 229.23 1024 512 1024Z" fill="#9ABEFF"/>
<path d="M363.701 697H807.701L568.601 282.5L495.801 482.6L635.601 649L363.701 697ZM549.501 251L378.601 394.3L232.301 647.9H364.301V648.2L549.501 251Z" fill="white"/>
</g>
<defs>
<clipPath id="clip0_3_476">
<rect width="1024" height="1024" fill="white"/>
</clipPath>
</defs>
</svg>

<svg xmlns="http://www.w3.org/2000/svg" width="1024" height="1024" fill="none">
   <g clip-path="url(#a)">
      <path fill="#9ABEFF" d="M512 1024c282.77 0 512-229.23 512-512S794.77 0 512 0 0 229.23 0 512s229.23 512 512 512Z"/>
      <path fill="#fff" d="M363.701 697h444l-239.1-414.5-72.8 200.1 139.8 166.4-271.9 48Zm185.8-446-170.9 143.3-146.3 253.6h132v.3l185.2-397.2Z"/>
   </g>
   <defs>
      <clipPath id="a">
         <path fill="#fff" d="M0 0h1024v1024H0z"/>
      </clipPath>
   </defs>
</svg>
